X:1
T:Title
%%score { ( 1 3 5 ) | ( 2 4 ) }
L:1/8
M:4/4
K:Eb
V:1 treble nm="Grand Piano"
V:3 treble 
V:5 treble 
V:2 bass 
V:4 bass 
V:1
 z4 z2[Q:1/4=100] (3[GB][_G=A][=GB] | [EG]2 [GB]2 [Ge]2 [B,EG]2 | d2 z2 z2 [CEF]>[CEF] | %3
 [DB]2 [DF]2 [EG]2 [FA]2 |[M:3/4] [EG]6 |[M:1/4] (3[GB][_G=A][=GB] | %6
[M:4/4] [Ge]2 [EGB]2 [EBd]2 [EAc]2 | [EGB]6 (3:2:2G,2 [CEA] | [B,EG]2 [A,DF]2 [B,EG]2 [A,DF]2 | %9
[M:3/4] [G,E]6 |[M:1/4] (3[EGB][EG][Ge] |[M:4/4] z4 z cAc | [GB]6 z2 | [FA]2 z2 z4 | %14
 [Ac]2 [GB]4 z2 | [Ac]6 z2 | [GB]6 B,2 | [EG]-[B,EG][DF]-[B,DF] [B,EG]2 [A,DF]2 | %18
[M:3/4] E2- [CE-][CE-] [B,E]2 |] %19
V:2
 z4 z2 (3:2:2[E,E]2 [E,E] | [E,B,]2 [E,B,]2 [E,B,]2 E,2 | A,6[K:treble][K:bass] z2 | %3
 [B,,B,]2 [B,,B,]2 [B,,B,]2 [D,B,]2 |[M:3/4] [E,B,]6 |[M:1/4] (3:2:2[E,E]2 [E,E] | %6
[M:4/4] [E,B,]2 E,2 A,2 A,2 | E,6 (3E,-[E,E]E, | B,,2 B,,2 B,,2 B,,2 |[M:3/4] E,6 | %10
[M:1/4] (3E,-[E,B,][E,B,] |[M:4/4] B,B,B,B, z[K:treble] A[B,DF][B,DA] | %12
 [E,E]E,E,E, E,2[K:treble] (3EFG | B,B,[K:bass]B,B, B,,2 B,,2 | E,E,E,E, E,2 E,E, | %15
 A,A,A,A, z[K:treble] cA,[K:bass]A, | E,E,E,E, E,2 (3:2:2z2 F | B,,B,,B,,B,, B,,2 B,,2 | %18
[M:3/4] z2 A,A, G,2 |] %19
V:3
 x8 | x8 | E6 z2 | x8 |[M:3/4] x6 |[M:1/4] x2 |[M:4/4] x8 | z4 z2 B,2 | x8 |[M:3/4] x6 | %10
[M:1/4] x2 |[M:4/4] [Fd]6 z2 | z EEE E2 (3GAB | DD [DF]2 [B,EG]2 [DFA]2 | EEEE E2 [EGB][EGB] | %15
 EEEE z e[EBd][EAc] | EEEE E2 (3z EA | .B,2 .B,2 z4 |[M:3/4] G,2 z2 z2 |] %19
V:4
 x8 | x8 | z2[K:treble] c4[K:bass] A,,>A,, | x8 |[M:3/4] x6 |[M:1/4] x2 |[M:4/4] x8 | x8 | x8 | %9
[M:3/4] x6 |[M:1/4] x2 |[M:4/4] z4 B,2[K:treble] z2 | x6[K:treble] x2 | x2[K:bass] x6 | x8 | %15
 z4 A,2[K:treble] z2[K:bass] | x8 | x8 |[M:3/4] E,6 |] %19
V:5
 x8 | x8 | x8 | x8 |[M:3/4] x6 |[M:1/4] x2 |[M:4/4] x8 | x8 | x8 |[M:3/4] x6 |[M:1/4] x2 | %11
[M:4/4] z4 D2 z2 | x8 | x8 | x8 | z4 E2 z2 | x8 | x8 |[M:3/4] x6 |] %19

